X: 14
T: HIT AND MISSE
B: "FIFTY OLD ENGLISH FOLK DANCE AIRS", Edgar H. Hunt ed., Schott & Co. Ltd. pub., London 1939
Z: 2004-2014 John Chambers <jc:trillian.mit.edu>
M: 6/8
L: 1/8
K: C
|:\
c2d (ec)A | (G>AB/c/) (dB)G |\
e2f (ge)c | (fd)B cGE :|\
|:\
ccc (cd/e/)f | e3 e>dc |
B>cd d>ef | g3 e2c :|\
|:\
(ed2) B2G | (gf2) e2c |\
(e2d) (f2e) | g3 e2c :|

%%sep 1 1 500
%%sep 1 1 500
